X: 1
T: Patrick Chamoin's Strathspey
C: James Gray
R: strathspey
B: Alex & James Gray "Tweeddale Collection" v.4 p.41 #3
N: Tune for Buchan's Country
Z: 2017 John Chambers <jc:trillian.mit.edu>
S: PDF via strathspey.org message
M: 4/4
L: 1/8
K: D
A |\
"D"D2 F>A d<A d>f | "Em"g>f e>d "A"(3cBA (3GFE |\
"D"D2 F>A d<A d>f | "Em"(3geg "A"(3eag "D"f<d d :|
f |\
"D"a>A d<f a>f d<A | "Em"g>f e>d "A"(3cAc (3efg |\
"D"a>A d<f a>f d<A | "Em"g<e "A"a>g "D"f<d d> ||
f |\
"Em"geg "A"(3eag "D"(3fdf "Bm"(3dgf | "A"(3ece "F#m"(3cfe "Bm"(3dcB "A"(3AFE |\
"D"D2 F>A d<A d>f | "Em"(3geg "A"(3eag "D"f<d d |]
